src/assets/filled/FormatCircle.svg

<?xml version="1.0" encoding="UTF-8"?>
<svg width="24" height="24" viewBox="0 0 24 24" xmlns="http://www.w3.org/2000/svg">
 <path d="m21.1 7.87c0.58-0.64 0.9-1.47 0.9-2.34 0-1.95-1.58-3.53-3.53-3.53-0.87 0-1.69 0.32-2.33 0.9-1.29-0.6-2.68-0.9-4.14-0.9-1.43 0-2.85 0.31-4.13 0.9-0.64-0.58-1.47-0.9-2.34-0.9-1.95 0-3.53 1.58-3.53 3.53 0 0.87 0.32 1.7 0.9 2.34-0.59 1.28-0.9 2.7-0.9 4.13 0 1.46 0.3 2.85 0.9 4.14-0.58 0.64-0.9 1.46-0.9 2.33 0 1.95 1.58 3.53 3.53 3.53 0.87 0 1.7-0.32 2.34-0.9 1.28 0.59 2.7 0.9 4.13 0.9 1.46 0 2.85-0.3 4.14-0.9 0.64 0.58 1.46 0.9 2.33 0.9 1.95 0 3.53-1.58 3.53-3.53 0-0.87-0.32-1.69-0.9-2.33 0.6-1.29 0.9-2.68 0.9-4.14 0-1.43-0.31-2.85-0.9-4.13zm-1.42 7.3c-0.11-0.04-0.22-0.08-0.33-0.11-0.17-0.04-0.35-0.07-0.52-0.09-0.12-0.01-0.24-0.02-0.36-0.02-1.94 0-3.52 1.58-3.52 3.52 0 0.12 0.01 0.24 0.02 0.36 0.02 0.17 0.05 0.35 0.09 0.52 0.03 0.11 0.07 0.22 0.11 0.33 0 0.03 0.01 0.06 0.03 0.09l0.03 0.09c-2.01 0.84-4.41 0.85-6.46 0l0.03-0.09c0.02-0.03 0.03-0.06 0.03-0.09 0.04-0.11 0.08-0.22 0.11-0.33 0.04-0.17 0.07-0.35 0.09-0.52 0.01-0.12 0.02-0.24 0.02-0.36 0-1.94-1.58-3.52-3.52-3.52-0.12 0-0.24 0.01-0.36 0.02-0.17 0.02-0.35 0.05-0.52 0.09-0.11 0.03-0.22 0.07-0.33 0.11-0.03 0-0.06 0.01-0.09 0.03-0.03 0.01-0.06 0.02-0.09 0.03-0.43-1.01-0.64-2.1-0.64-3.23 0-1.11 0.22-2.22 0.64-3.23 0.01 0 0.03 0.01 0.04 0.01-0.12-0.05-0.25-0.11-0.36-0.17-0.16-0.09-0.32-0.19-0.47-0.31 0.3 0.23 0.62 0.41 0.97 0.53 0.12 0.05 0.25 0.09 0.37 0.12 0.08 0.02 0.15 0.03 0.22 0.04 0.09 0.02 0.17 0.03 0.26 0.04 0.12 0.01 0.24 0.02 0.36 0.02 1.94 0 3.52-1.58 3.52-3.52 0-0.12-0.01-0.24-0.02-0.36-0.01-0.09-0.02-0.17-0.04-0.26-0.01-0.07-0.02-0.14-0.04-0.22-0.03-0.12-0.07-0.25-0.12-0.37-0.12-0.35-0.3-0.67-0.53-0.97 0.12 0.15 0.22 0.31 0.31 0.47 0.06 0.11 0.12 0.24 0.17 0.36 0-0.01-0.01-0.03-0.01-0.04 2.04-0.85 4.45-0.84 6.46 0l-0.03 0.09c-0.02 0.03-0.03 0.06-0.03 0.09-0.04 0.11-0.08 0.22-0.11 0.33-0.04 0.17-0.07 0.35-0.09 0.52-0.01 0.12-0.02 0.24-0.02 0.36 0 1.94 1.58 3.52 3.52 3.52 0.12 0 0.24-0.01 0.36-0.02 0.17-0.02 0.35-0.05 0.52-0.09 0.11-0.03 0.22-0.07 0.33-0.11 0.03 0 0.06-0.01 0.09-0.03 0.03-0.01 0.06-0.02 0.09-0.03 0.42 1.01 0.64 2.12 0.64 3.23 0 1.13-0.21 2.22-0.64 3.23-0.03-0.01-0.06-0.02-0.09-0.03-0.03-0.02-0.06-0.03-0.09-0.03z"/>
</svg>

<svg width="24" height="24" viewBox="0 0 24 24"  xmlns="http://www.w3.org/2000/svg">
<path d="M21.1 7.87C21.68 7.23 22 6.4 22 5.53C22 3.58 20.42 2 18.47 2C17.6 2 16.78 2.32 16.14 2.9C14.85 2.3 13.46 2 12 2C10.57 2 9.15 2.31 7.87 2.9C7.23 2.32 6.4 2 5.53 2C3.58 2 2 3.58 2 5.53C2 6.4 2.32 7.23 2.9 7.87C2.31 9.15 2 10.57 2 12C2 13.46 2.3 14.85 2.9 16.14C2.32 16.78 2 17.6 2 18.47C2 20.42 3.58 22 5.53 22C6.4 22 7.23 21.68 7.87 21.1C9.15 21.69 10.57 22 12 22C13.46 22 14.85 21.7 16.14 21.1C16.78 21.68 17.6 22 18.47 22C20.42 22 22 20.42 22 18.47C22 17.6 21.68 16.78 21.1 16.14C21.7 14.85 22 13.46 22 12C22 10.57 21.69 9.15 21.1 7.87ZM19.68 15.17C19.57 15.13 19.46 15.09 19.35 15.06C19.18 15.02 19 14.99 18.83 14.97C18.71 14.96 18.59 14.95 18.47 14.95C16.53 14.95 14.95 16.53 14.95 18.47C14.95 18.59 14.96 18.71 14.97 18.83C14.99 19 15.02 19.18 15.06 19.35C15.09 19.46 15.13 19.57 15.17 19.68C15.17 19.71 15.18 19.74 15.2 19.77C15.21 19.8 15.22 19.83 15.23 19.86C13.22 20.7 10.82 20.71 8.77 19.86C8.78 19.83 8.79 19.8 8.8 19.77C8.82 19.74 8.83 19.71 8.83 19.68C8.87 19.57 8.91 19.46 8.94 19.35C8.98 19.18 9.01 19 9.03 18.83C9.04 18.71 9.05 18.59 9.05 18.47C9.05 16.53 7.47 14.95 5.53 14.95C5.41 14.95 5.29 14.96 5.17 14.97C5 14.99 4.82 15.02 4.65 15.06C4.54 15.09 4.43 15.13 4.32 15.17C4.29 15.17 4.26 15.18 4.23 15.2C4.2 15.21 4.17 15.22 4.14 15.23C3.71 14.22 3.5 13.13 3.5 12C3.5 10.89 3.72 9.78 4.14 8.77C4.15 8.77 4.17 8.78 4.18 8.78C4.06 8.73 3.93 8.67 3.82 8.61C3.66 8.52 3.5 8.42 3.35 8.3C3.65 8.53 3.97 8.71 4.32 8.83C4.44 8.88 4.57 8.92 4.69 8.95C4.77 8.97 4.84 8.98 4.91 8.99C5 9.01 5.08 9.02 5.17 9.03C5.29 9.04 5.41 9.05 5.53 9.05C7.47 9.05 9.05 7.47 9.05 5.53C9.05 5.41 9.04 5.29 9.03 5.17C9.02 5.08 9.01 5 8.99 4.91C8.98 4.84 8.97 4.77 8.95 4.69C8.92 4.57 8.88 4.44 8.83 4.32C8.71 3.97 8.53 3.65 8.3 3.35C8.42 3.5 8.52 3.66 8.61 3.82C8.67 3.93 8.73 4.06 8.78 4.18C8.78 4.17 8.77 4.15 8.77 4.14C10.81 3.29 13.22 3.3 15.23 4.14C15.22 4.17 15.21 4.2 15.2 4.23C15.18 4.26 15.17 4.29 15.17 4.32C15.13 4.43 15.09 4.54 15.06 4.65C15.02 4.82 14.99 5 14.97 5.17C14.96 5.29 14.95 5.41 14.95 5.53C14.95 7.47 16.53 9.05 18.47 9.05C18.59 9.05 18.71 9.04 18.83 9.03C19 9.01 19.18 8.98 19.35 8.94C19.46 8.91 19.57 8.87 19.68 8.83C19.71 8.83 19.74 8.82 19.77 8.8C19.8 8.79 19.83 8.78 19.86 8.77C20.28 9.78 20.5 10.89 20.5 12C20.5 13.13 20.29 14.22 19.86 15.23C19.83 15.22 19.8 15.21 19.77 15.2C19.74 15.18 19.71 15.17 19.68 15.17Z" />
</svg>
